svg/u1f953.svg

<svg viewBox="0 0 128 128" xmlns="http://www.w3.org/2000/svg">
  <path d="M43.96,78.53l-21.42,29.41l4.7,3.93c0,0,8.22,1.64,16.04-4.74c7.83-6.38,10.25-12.85,11.02-14.59 s4.24-7.97,8.7-10.44c6.72-3.72,13.4-2.92,15.62-3.41c2.22-0.48,6.28-1.84,9.18-6.38c2.9-4.54,2.26-9.06,6.9-12.54 s9.68-2.49,15.47-6.07c5.8-3.58,10.66-11.45,11.88-14.03c1.76-3.72,3.07-7.25,3.01-9.71c-0.05-1.84-0.96-3.13-2.96-4.2 c-1.63-0.87-2.58-1.24-2.58-1.24L43.96,78.53z" fill="#FC873D"/>
  <path d="M49.96,62.1L36.62,72.15c0,0-16.8,21.95-17.04,22.61c-0.23,0.65-0.9,1.32-2.48,2.16 c-1.43,0.76-3.95,1.83-3.95,1.83s5.49,5.68,7.13,7.22c1.64,1.55,4.74,4.02,4.74,4.02s7.53,0.04,14.39-5.66s9.67-13.05,11.4-17.11 c1.74-4.06,5.12-9.47,9.38-11.4c4.25-1.93,14.3-1.45,20.97-6.48c6.67-5.03,4.93-11.69,10.44-15.56c5.51-3.87,9.82-2.71,14.6-5.85 c5.03-3.31,8.46-8.43,10.45-12.09c2.18-4,4.23-10.72,4.23-10.72s-4.06-2.37-8.89-4.3c-3.72-1.49-8.31-3-8.31-3 s-7.44,10.54-9.47,12.66s-15.27,6.09-15.27,6.09L65.9,54.85L49.96,62.1z" fill="#D9411C"/>
  <path d="M13.19,92.58l-6.28-1.37c0,0-3.07-3.41-3.62-4.44c-0.55-1.02-0.14-2.25,1.43-2.39 s6.35-0.14,9.36-0.48c3-0.34,8.6-1.5,12.09-5.8c3.48-4.3,5.05-10.6,5.94-14.41c1.26-5.37,4.5-8.39,9.28-9.55s13.38-0.93,16.52-3.39 c3.14-2.46,4.12-10.55,5.2-13.9c1.43-4.44,4.44-6.9,7.65-7.1c3.93-0.25,8.53,1.86,8.53,1.86l-5.52,6.54l-6.55,17.41 c0,0-23.92,7.47-24.24,7.47c-0.32,0-8.97,13.78-9.5,14.63c-0.53,0.85-8.12,11.53-9.93,11.85C21.72,89.84,13.19,92.58,13.19,92.58z" fill="#B42F17"/>
  <path d="M95.08,16.05c-2.41-0.01-3.07,3.07-3.35,4.78c-0.27,1.71-0.41,4.51-1.91,7.1s-3.69,3.69-3.69,3.69 s-13.92-1.85-17.7,5.88c-4.05,8.29-1.9,13.1-6.75,16.93c-7.91,6.24-14.82,0.68-22.12,7.24c-5.54,4.97-7.51,20.55-16.59,25.61 s-16.25,3.7-16.25,3.7l3.55,4.5c0,0,4.04-0.95,6.65-1.32c1.19-0.17,1.82-0.03,2.1,0.05c0.63,0.2,0.48,0.76,0.48,0.76 s4.5-1.54,9-5.57c4.51-4.03,9.15-13.04,10.04-15.02c0.89-1.98,2.8-5.33,3.82-4.37c1.02,0.96-2.4,13.67-8.06,21.65 c-4.78,6.73-9.88,8.69-12.98,9.94c-3,1.21-4.18,1.34-4.18,1.34s1.25,1.28,2.27,2.27c0.74,0.72,2.13,1.95,2.13,1.95 s6.74-1.23,15.07-9.29s11.49-23.01,17.19-30.38c4.93-6.38,11.56-6.81,14.84-8.24s5.66-3.78,6.89-8.29s2.12-12.16,8.74-13.93 s14.2,0.41,17.07-5.87c2.87-6.28,2.9-13.11,2.9-13.11S98.44,16.06,95.08,16.05z" fill="#FEB896"/>
  <path d="M80.08,41c1.21-0.5,4.84,1.67,5.37,3.59c0.52,1.93,0.52,3.02,1.51,4.06 c0.99,1.04,3.44,1.79,3.49,2.92c0.07,1.38-4.17,4.95-9.06,3.33c-4.9-1.61-4.48-5.01-4.53-5.64S78.57,41.63,80.08,41z" fill="#FC6B4A"/>
  <path d="M68.15,35.63c-0.14-0.59-3.17-1.74-4.12,0.7c-0.98,2.52-1.16,4.25-0.12,5.39 c0.62,0.68,1.35,0.72,1.76,0.37c0.41-0.35,0.24-1.06,1.4-3.7C67.54,37.3,68.3,36.27,68.15,35.63z" fill="#FC6B4A"/>
  <path d="M66.19,43.76c0,0,0.37,0.3,1.52,0.33c1.66,0.05,2.46-1.5,3.77-0.98c1.42,0.56,1.74,2.15,1.92,3.18 c0.2,1.1,0.76,1.72,1.46,1.86c0.63,0.12,1.43-0.26,1.43-0.26s0.48-1.99,1.35-4.32c0.46-1.24,1.58-2.98,1.58-2.98s-0.49-1-2.26-1.3 c-1.56-0.26-2.36,0.75-4-0.14c-1.34-0.73-0.9-1.66-2.14-2.68c-0.96-0.8-1.28-0.69-1.28-0.69s-0.95,1.04-1.87,3.28 C66.84,41.12,66.19,43.76,66.19,43.76z" fill="#FAFFFF"/>
  <path d="M98.44,21.57c-1.39,0.5-3.06,4.03-1.83,6.21c1.23,2.18,5.26,2.18,5.26,2.18s0.71-1.9,1.04-3.18 c0.33-1.28,0.7-2.92,0.7-2.92s-1.88-0.88-2.55-1.4C100.41,21.95,99.77,21.09,98.44,21.57z" fill="#FAFFFF"/>
  <path d="M103.64,23.87c0,0,1.93,0.94,5.64,0.6c2.93-0.27,4.41-0.28,5.22,0.71c0.81,1,0.73,2.62,0.33,4.61 c-0.52,2.62-1.82,3.25-3.84,2.6c-2.05-0.66-4.16-1.43-5.07-1.69c-1.7-0.47-4.02-0.73-4.02-0.73s0.66-1.86,0.99-3.05 C103.22,25.73,103.64,23.87,103.64,23.87z" fill="#FC6B48"/>
  <path d="M37.47,57.15c-1.03,0.07-3.46,2.55-3.2,4.18c0.2,1.25,1.6,2.04,1.94,2.18 c0.88,0.36,1.85-1.5,2.4-2.06c0.55-0.56,1.78-1.35,1.71-2.06C40.22,58.4,38.76,57.07,37.47,57.15z" fill="#FA6C43"/>
  <path d="M37.15,64.74c-0.29,0.59,1.27,1.99,2.27,2.51c1,0.52,2.9-0.77,4.61,0.51s1.13,3.38,1.75,4.13 c0.62,0.76,1.72,1.88,3.14,2.3c1.02,0.3,1.31-0.68,2.31-2.59c1.01-1.92,1.36-2.02,1.31-2.59c-0.06-0.74-2.21-2.99-3.96-4.18 s-4.22-2.32-4.93-3.04c-0.71-0.71-1.29-2.12-1.87-1.79c-0.41,0.23-1.58,0.92-2.63,2.04C38.34,62.9,37.46,64.12,37.15,64.74z" fill="#FEFEFF"/>
  <path d="M52.69,71.51c-1.12,0.44-2.43,3.26-2.5,4.01c-0.08,0.93,2.02,2.9,3.25,2.9s2.94-2.94,2.66-3.94 C55.81,73.49,53.7,71.11,52.69,71.51z" fill="#FA6C43"/>
</svg>

<svg viewBox="0 0 128 128" xmlns="http://www.w3.org/2000/svg">
  <defs/>
  <path d="M43.96,78.53 L22.54,107.94 L27.24,111.87 C27.24,111.87 35.46,113.51 43.28,107.13 C51.11,100.75 53.53,94.28 54.3,92.54 C55.07,90.8 58.54,84.57 63,82.1 C69.72,78.38 76.4,79.18 78.62,78.69 C80.84,78.21 84.9,76.85 87.8,72.31 C90.7,67.77 90.06,63.25 94.7,59.77 C99.34,56.29 104.38,57.28 110.17,53.7 C115.97,50.12 120.83,42.25 122.05,39.67 C123.81,35.95 125.12,32.42 125.06,29.96 C125.01,28.12 124.1,26.83 122.1,25.76 C120.47,24.89 119.52,24.52 119.52,24.52 L43.96,78.53 Z" fill="#FC873D"/>
  <path d="M49.96,62.1 L36.62,72.15 C36.62,72.15 19.82,94.1 19.58,94.76 C19.35,95.41 18.68,96.08 17.1,96.92 C15.67,97.68 13.15,98.75 13.15,98.75 C13.15,98.75 18.64,104.43 20.28,105.97 C21.92,107.52 25.02,109.99 25.02,109.99 C25.02,109.99 32.55,110.03 39.41,104.33 C46.27,98.63 49.08,91.28 50.81,87.22 C52.55,83.16 55.93,77.75 60.19,75.82 C64.44,73.89 74.49,74.37 81.16,69.34 C87.83,64.31 86.09,57.65 91.6,53.78 C97.11,49.91 101.42,51.07 106.2,47.93 C111.23,44.62 114.66,39.5 116.65,35.84 C118.83,31.84 120.88,25.12 120.88,25.12 C120.88,25.12 116.82,22.75 111.99,20.82 C108.27,19.33 103.68,17.82 103.68,17.82 C103.68,17.82 96.24,28.36 94.21,30.48 C92.18,32.6 78.94,36.57 78.94,36.57 L65.9,54.85 L49.96,62.1 Z" fill="#D9411C"/>
  <path d="M13.19,92.58 L6.91,91.21 C6.91,91.21 3.84,87.8 3.29,86.77 C2.74,85.75 3.15,84.52 4.72,84.38 C6.29,84.24 11.07,84.24 14.08,83.9 C17.08,83.56 22.68,82.4 26.17,78.1 C29.65,73.8 31.22,67.5 32.11,63.69 C33.37,58.32 36.61,55.3 41.39,54.14 C46.17,52.98 54.77,53.21 57.91,50.75 C61.05,48.29 62.03,40.2 63.11,36.85 C64.54,32.41 67.55,29.95 70.76,29.75 C74.69,29.5 79.29,31.61 79.29,31.61 L73.77,38.15 L67.22,55.56 C67.22,55.56 43.3,63.03 42.98,63.03 C42.66,63.03 34.01,76.81 33.48,77.66 C32.95,78.51 25.36,89.19 23.55,89.51 C21.72,89.84 13.19,92.58 13.19,92.58 Z" fill="#B42F17"/>
  <path d="M95.08,16.05 C92.67,16.04 92.01,19.12 91.73,20.83 C91.46,22.54 91.32,25.34 89.82,27.93 C88.32,30.52 86.13,31.62 86.13,31.62 C86.13,31.62 72.21,29.77 68.43,37.5 C64.38,45.79 66.53,50.6 61.68,54.43 C53.77,60.67 46.86,55.11 39.56,61.67 C34.02,66.64 32.05,82.22 22.97,87.28 C13.89,92.34 6.72,90.98 6.72,90.98 L10.27,95.48 C10.27,95.48 14.31,94.53 16.92,94.16 C18.11,93.99 18.74,94.13 19.02,94.21 C19.65,94.41 19.5,94.97 19.5,94.97 C19.5,94.97 24,93.43 28.5,89.4 C33.01,85.37 37.65,76.36 38.54,74.38 C39.43,72.4 41.34,69.05 42.36,70.01 C43.38,70.97 39.96,83.68 34.3,91.66 C29.52,98.39 24.42,100.35 21.32,101.6 C18.32,102.81 17.14,102.94 17.14,102.94 C17.14,102.94 18.39,104.22 19.41,105.21 C20.15,105.93 21.54,107.16 21.54,107.16 C21.54,107.16 28.28,105.93 36.61,97.87 C44.94,89.81 48.1,74.86 53.8,67.49 C58.73,61.11 65.36,60.68 68.64,59.25 C71.92,57.82 74.3,55.47 75.53,50.96 C76.76,46.45 77.65,38.8 84.27,37.03 C90.89,35.26 98.47,37.44 101.34,31.16 C104.21,24.88 104.24,18.05 104.24,18.05 C104.24,18.05 98.44,16.06 95.08,16.05 Z" fill="#FEB896"/>
  <path d="M80.08,41 C81.29,40.5 84.92,42.67 85.45,44.59 C85.97,46.52 85.97,47.61 86.96,48.65 C87.95,49.69 90.4,50.44 90.45,51.57 C90.52,52.95 86.28,56.52 81.39,54.9 C76.49,53.29 76.91,49.89 76.86,49.26 C76.81,48.63 78.57,41.63 80.08,41 Z" fill="#FC6B4A"/>
  <path d="M68.15,35.63 C68.01,35.04 64.98,33.89 64.03,36.33 C63.05,38.85 62.87,40.58 63.91,41.72 C64.53,42.4 65.26,42.44 65.67,42.09 C66.08,41.74 65.91,41.03 67.07,38.39 C67.54,37.3 68.3,36.27 68.15,35.63 Z" fill="#FC6B4A"/>
  <path d="M66.19,43.76 C66.19,43.76 66.56,44.06 67.71,44.09 C69.37,44.14 70.17,42.59 71.48,43.11 C72.9,43.67 73.22,45.26 73.4,46.29 C73.6,47.39 74.16,48.01 74.86,48.15 C75.49,48.27 76.29,47.89 76.29,47.89 C76.29,47.89 76.77,45.9 77.64,43.57 C78.1,42.33 79.22,40.59 79.22,40.59 C79.22,40.59 78.73,39.59 76.96,39.29 C75.4,39.03 74.6,40.04 72.96,39.15 C71.62,38.42 72.06,37.49 70.82,36.47 C69.86,35.67 69.54,35.78 69.54,35.78 C69.54,35.78 68.59,36.82 67.67,39.06 C66.84,41.12 66.19,43.76 66.19,43.76 Z" fill="#FAFFFF"/>
  <path d="M98.44,21.57 C97.05,22.07 95.38,25.6 96.61,27.78 C97.84,29.96 101.87,29.96 101.87,29.96 C101.87,29.96 102.58,28.06 102.91,26.78 C103.24,25.5 103.61,23.86 103.61,23.86 C103.61,23.86 101.73,22.98 101.06,22.46 C100.41,21.95 99.77,21.09 98.44,21.57 Z" fill="#FAFFFF"/>
  <path d="M103.64,23.87 C103.64,23.87 105.57,24.81 109.28,24.47 C112.21,24.2 113.69,24.19 114.5,25.18 C115.31,26.18 115.23,27.8 114.83,29.79 C114.31,32.41 113.01,33.04 110.99,32.39 C108.94,31.73 106.83,30.96 105.92,30.7 C104.22,30.23 101.9,29.97 101.9,29.97 C101.9,29.97 102.56,28.11 102.89,26.92 C103.22,25.73 103.64,23.87 103.64,23.87 Z" fill="#FC6B48"/>
  <path d="M37.47,57.15 C36.44,57.22 34.01,59.7 34.27,61.33 C34.47,62.58 35.87,63.37 36.21,63.51 C37.09,63.87 38.06,62.01 38.61,61.45 C39.16,60.89 40.39,60.1 40.32,59.39 C40.22,58.4 38.76,57.07 37.47,57.15 Z" fill="#FA6C43"/>
  <path d="M37.15,64.74 C36.86,65.33 38.42,66.73 39.42,67.25 C40.42,67.77 42.32,66.48 44.03,67.76 C45.74,69.04 45.16,71.14 45.78,71.89 C46.4,72.65 47.5,73.77 48.92,74.19 C49.94,74.49 50.23,73.51 51.23,71.6 C52.24,69.68 52.59,69.58 52.54,69.01 C52.48,68.27 50.33,66.02 48.58,64.83 C46.83,63.64 44.36,62.51 43.65,61.79 C42.94,61.08 42.36,59.67 41.78,60 C41.37,60.23 40.2,60.92 39.15,62.04 C38.34,62.9 37.46,64.12 37.15,64.74 Z" fill="#FEFEFF"/>
  <path d="M52.69,71.51 C51.57,71.95 50.26,74.77 50.19,75.52 C50.11,76.45 52.21,78.42 53.44,78.42 C54.67,78.42 56.38,75.48 56.1,74.48 C55.81,73.49 53.7,71.11 52.69,71.51 Z" fill="#FA6C43"/>
</svg>
